X: 3
T: The Stool Of Repentance
R: jig
M: 6/8
L: 1/8
K: Amaj
A|cAA eAA|gAA f2e|dBB fBB|aBB f2e|cAA eAA|gAA f2e|dfd ege|fac TB2A:||:aga ABA|ABA TB2A|aga BcB|BcB Tf2e|aga ABA|ABA TB2A|dfd ege|(fa)c TB2A:|]


Tune 1138	Setting 14403

